X: 56
%
U:~=!turn!
T: The Bottom of the Punch Bowl
C:
O:Scotland
B:Keith Norman MacDonald : "The Skye collection of the best reels & strathspeys extant" : 1887
Z:Ralph Palmer
R:Reel
N:Country Dance
M:C
L:1/8
K:D
FE | D2 D2 {/c}d3 e | {/c}d2 D2 (FG)AF | E2 E2 (ef)Tgf | e2 E2 (FG)AF | D2 D2 {/c}d3 e |
Tfe{/c}dB {/c}d3 A | B3 F A3 E | F2 E2 D2 :: de | fe{/c}dB ABde | fe{/c}dB {/c}d3 e | A3 B AB{/c}de |
f2 e2 e2 {/c}de | Tfe{/c}dB ABde | Tfe{/c}dB {/c}d3 A | BdBF ABAE | {/G}F2 D2 D2 :|


